assets/svg/1F4F3.svg

<svg xmlns="http://www.w3.org/2000/svg" viewBox="0 0 64 64" enable-background="new 0 0 64 64"><path fill="#f6921e" d="M64.169,57.254c0,3.821-3.099,6.912-6.912,6.912H6.915C3.098,64.166,0,61.075,0,57.254V6.915    C0,3.093,3.098,0,6.915,0h50.342c3.813,0,6.912,3.093,6.912,6.915V57.254z"/><path fill="#d07929" d="M0,48.788v8.389C0,61,3.098,64.099,6.915,64.099h50.34c3.819,0,6.914-3.099,6.914-6.922V6.844    C53.214,46.647,13.821,49.17,0,48.788z"/><g fill="#fff"><path d="m43.09 10.326h-21.701c-1.916 0-3.473 1.557-3.473 3.471v20.572 1.25 12.01 1.252 1.725c0 1.911 1.557 3.471 3.473 3.471h21.701c1.915 0 3.473-1.56 3.473-3.471v-1.725-1.252-9.09-1.254-23.485c-.0001-1.914-1.558-3.471-3.473-3.471m1.734 28.12v9.178c0 .958-.776 1.736-1.734 1.736h-21.701c-.958 0-1.74-.778-1.74-1.736v-11.777-1.252-20.8c0-.956.782-1.736 1.74-1.736h21.701c.958 0 1.734.78 1.734 1.736v23.402 1.249"/><path d="m45.33 19.348c.205.713.079 1.606.069 2.091 4.264 1.853 6.979 4.583 6.979 7.634 0 5.57-9.04 10.1-20.14 10.1-11.1 0-20.14-4.531-20.14-10.1 0-3.069 2.746-5.817 7.06-7.669-.119-.639-.232-1.281-.347-1.924-5.457 2.158-8.949 5.614-8.949 9.593.0001 6.686 9.829 11.927 22.375 11.927 12.544 0 22.373-5.241 22.373-11.927-.0001-4.062-3.635-7.578-9.285-9.725"/><path d="m53.971 20.332v2.137c3.418 1.812 5.526 4.246 5.526 6.934 0 2.685-2.108 5.121-5.526 6.931v2.162c4.773-2.175 7.766-5.411 7.766-9.09-.0001-3.681-3-6.903-7.766-9.07"/><path d="m9.867 20.332v2.137c-3.418 1.811-5.527 4.245-5.527 6.933 0 2.685 2.11 5.121 5.527 6.931v2.162c-4.774-2.175-7.766-5.411-7.766-9.09 0-3.68 3-6.902 7.766-9.07"/></g></svg>

<?xml version="1.0" encoding="UTF-8" standalone="no"?>
<!-- Generator: Adobe Illustrator 16.0.0, SVG Export Plug-In . SVG Version: 6.00 Build 0)  -->

<svg
   xmlns:dc="http://purl.org/dc/elements/1.1/"
   xmlns:cc="http://creativecommons.org/ns#"
   xmlns:rdf="http://www.w3.org/1999/02/22-rdf-syntax-ns#"
   xmlns:svg="http://www.w3.org/2000/svg"
   xmlns="http://www.w3.org/2000/svg"
   xmlns:sodipodi="http://sodipodi.sourceforge.net/DTD/sodipodi-0.dtd"
   xmlns:inkscape="http://www.inkscape.org/namespaces/inkscape"
   version="1.1"
   id="Layer_1"
   x="0px"
   y="0px"
   width="64px"
   height="64px"
   viewBox="0 0 64 64"
   enable-background="new 0 0 64 64"
   xml:space="preserve"
   inkscape:version="0.48.5 r10040"
   sodipodi:docname="1F4F3.svg"
   inkscape:export-filename="D:\TESTINGEMOJI\SVGTEST\1F4F3.png"
   inkscape:export-xdpi="90"
   inkscape:export-ydpi="90"><metadata
   id="metadata4631"><rdf:RDF><cc:Work
       rdf:about=""><dc:format>image/svg+xml</dc:format><dc:type
         rdf:resource="http://purl.org/dc/dcmitype/StillImage" /><dc:title></dc:title></cc:Work></rdf:RDF></metadata><defs
   id="defs4629" /><sodipodi:namedview
   pagecolor="#ffffff"
   bordercolor="#666666"
   borderopacity="1"
   objecttolerance="10"
   gridtolerance="10"
   guidetolerance="10"
   inkscape:pageopacity="0"
   inkscape:pageshadow="2"
   inkscape:window-width="640"
   inkscape:window-height="480"
   id="namedview4627"
   showgrid="false"
   inkscape:zoom="3.6875"
   inkscape:cx="32"
   inkscape:cy="32"
   inkscape:window-x="623"
   inkscape:window-y="274"
   inkscape:window-maximized="0"
   inkscape:current-layer="Layer_1" />
<g
   id="g4611">
	<g
   id="g4613">
		<path
   fill="#F6921E"
   d="M64.169,57.254c0,3.821-3.099,6.912-6.912,6.912H6.915C3.098,64.166,0,61.075,0,57.254V6.915    C0,3.093,3.098,0,6.915,0h50.342c3.813,0,6.912,3.093,6.912,6.915V57.254z"
   id="path4615" />
		<path
   fill="#D07929"
   d="M0,48.788v8.389C0,61,3.098,64.099,6.915,64.099h50.34c3.819,0,6.914-3.099,6.914-6.922V6.844    C53.214,46.647,13.821,49.17,0,48.788z"
   id="path4617" />
	</g>
	<path
   fill="#FFFFFF"
   d="M43.091,10.326H21.39c-1.916,0-3.473,1.557-3.473,3.471v20.572v1.25v12.008v1.252v1.725   c0,1.911,1.557,3.471,3.473,3.471h21.701c1.915,0,3.473-1.56,3.473-3.471v-1.725v-1.252v-9.091v-1.254V13.797   C46.563,11.883,45.006,10.326,43.091,10.326z M44.825,38.449v9.178c0,0.958-0.776,1.736-1.734,1.736H21.39   c-0.958,0-1.74-0.778-1.74-1.736V35.85v-1.252v-20.8c0-0.956,0.782-1.736,1.74-1.736h21.701c0.958,0,1.734,0.78,1.734,1.736V37.2   V38.449z"
   id="path4619" />
	<path
   fill="#FFFFFF"
   d="M45.329,19.348c0.205,0.713,0.079,1.606,0.069,2.091c4.264,1.853,6.979,4.583,6.979,7.634   c0,5.57-9.035,10.102-20.137,10.102c-11.101,0-20.136-4.531-20.136-10.102c0-3.069,2.746-5.817,7.058-7.669   c-0.119-0.639-0.232-1.281-0.347-1.924c-5.457,2.158-8.949,5.614-8.949,9.593C9.867,35.759,19.695,41,32.241,41   c12.544,0,22.373-5.241,22.373-11.927C54.613,25.011,50.979,21.495,45.329,19.348z"
   id="path4621" />
	<path
   fill="#FFFFFF"
   d="M53.971,20.332v2.137c3.418,1.812,5.526,4.246,5.526,6.934c0,2.685-2.108,5.121-5.526,6.931v2.162   c4.773-2.175,7.766-5.411,7.766-9.093C61.736,25.722,58.736,22.5,53.971,20.332z"
   id="path4623" />
	<path
   fill="#FFFFFF"
   d="M9.867,20.332v2.137C6.449,24.28,4.34,26.714,4.34,29.402c0,2.685,2.11,5.121,5.527,6.931v2.162   c-4.774-2.175-7.766-5.411-7.766-9.093C2.101,25.722,5.101,22.5,9.867,20.332z"
   id="path4625" />
</g>
</svg>
